app/assets/images/heroicon/mini/plus.svg

<svg width="20" height="20" viewBox="0 0 20 20" fill="none" xmlns="http://www.w3.org/2000/svg">
<path fill-rule="evenodd" clip-rule="evenodd" d="M10.75 2.75C10.75 2.33579 10.4142 2 10 2C9.58579 2 9.25 2.33579 9.25 2.75V9.25H2.75C2.33579 9.25 2 9.58579 2 10C2 10.4142 2.33579 10.75 2.75 10.75H9.25V17.25C9.25 17.6642 9.58579 18 10 18C10.4142 18 10.75 17.6642 10.75 17.25V10.75H17.25C17.6642 10.75 18 10.4142 18 10C18 9.58579 17.6642 9.25 17.25 9.25H10.75V2.75Z" fill="#0F172A"/>
</svg>

<svg xmlns="http://www.w3.org/2000/svg" viewBox="0 0 20 20" fill="currentColor" aria-hidden="true">
  <path fill-rule="evenodd" d="M10.75 2.75a.75.75 0 00-1.5 0v6.5h-6.5a.75.75 0 000 1.5h6.5v6.5a.75.75 0 001.5 0v-6.5h6.5a.75.75 0 000-1.5h-6.5v-6.5z" clip-rule="evenodd"/>
</svg>
